public/Incomes.svg

<svg width="40.000000" height="40.000000" viewBox="0 0 40 40" fill="none" xmlns="http://www.w3.org/2000/svg" xmlns:xlink="http://www.w3.org/1999/xlink">
	<desc>
			Created with Pixso.
	</desc>
	<defs/>
	<rect id="Frame 42" rx="7.500000" width="39.000000" height="39.000000" transform="translate(0.500000 0.500000)" fill="#E9FBFF" fill-opacity="1.000000"/>
	<path id="Combo shape" d="M26 12L14 12C11.7909 12 10 13.7909 10 16L10 24C10 26.2091 11.7909 28 14 28L21 28C21.5523 28 22 27.5523 22 27L22 26C22 23.7909 23.7909 22 26 22L29 22C29.5523 22 30 21.5523 30 21L30 16C30 13.7909 28.2091 12 26 12ZM13 16C13 16.5523 13.4477 17 14 17C14.5523 17 15 16.5523 15 16C15 15.4477 14.5523 15 14 15C13.4477 15 13 15.4477 13 16ZM20 22C18.8954 22 18 21.1046 18 20C18 18.8954 18.8954 18 20 18C21.1046 18 22 18.8954 22 20C22 21.1046 21.1046 22 20 22ZM27.75 24C27.75 23.5858 27.4142 23.25 27 23.25C26.5858 23.25 26.25 23.5858 26.25 24L26.25 25.25L25 25.25C24.5858 25.25 24.25 25.5858 24.25 26C24.25 26.4142 24.5858 26.75 25 26.75L26.25 26.75L26.25 28C26.25 28.4142 26.5858 28.75 27 28.75C27.4142 28.75 27.75 28.4142 27.75 28L27.75 26.75L29 26.75C29.4142 26.75 29.75 26.4142 29.75 26C29.75 25.5858 29.4142 25.25 29 25.25L27.75 25.25L27.75 24Z" clip-rule="evenodd" fill="#72DEF6" fill-opacity="1.000000" fill-rule="evenodd"/>
</svg>

<svg width="40" height="40" fill="none" xmlns="http://www.w3.org/2000/svg"><rect rx="7.5" width="39" height="39" transform="translate(.5 .5)" fill="#E9FBFF"/><path d="M26 12H14a4 4 0 0 0-4 4v8a4 4 0 0 0 4 4h7a1 1 0 0 0 1-1v-1a4 4 0 0 1 4-4h3a1 1 0 0 0 1-1v-5a4 4 0 0 0-4-4Zm-13 4a1 1 0 1 0 2 0 1 1 0 0 0-2 0Zm7 6a2 2 0 1 1 0-4 2 2 0 0 1 0 4Zm7.75 2a.75.75 0 0 0-1.5 0v1.25H25a.75.75 0 0 0 0 1.5h1.25V28a.75.75 0 0 0 1.5 0v-1.25H29a.75.75 0 0 0 0-1.5h-1.25V24Z" clip-rule="evenodd" fill="#72DEF6" fill-rule="evenodd"/></svg>
